X: 15736
T: Goldfinch, The
R: reel
M: 4/4
K: Amajor
Ac|e2ea f2af|e2ae fece|e2af ecAc|BABc BAFB|
A2ea f2af|e2ae fecf|e2af ecAc|BABcA2||
c2|ecBc A2Ac|B2Bd ceaf|ecBc A2ce|f2ba gfef|
ecBe A2Ac|B2Bd ceaf|ecBc A2ce|fafe a2||

